Delta/mimetypes/scalable/application-pdf.svg

<?xml version="1.0" encoding="UTF-8" standalone="no"?>
<svg
   xmlns:dc="http://purl.org/dc/elements/1.1/"
   xmlns:cc="http://creativecommons.org/ns#"
   xmlns:rdf="http://www.w3.org/1999/02/22-rdf-syntax-ns#"
   xmlns:svg="http://www.w3.org/2000/svg"
   xmlns="http://www.w3.org/2000/svg"
   xmlns:sodipodi="http://sodipodi.sourceforge.net/DTD/sodipodi-0.dtd"
   xmlns:inkscape="http://www.inkscape.org/namespaces/inkscape"
   width="192"
   height="192"
   viewBox="0 0 192 192"
   version="1.1"
   id="svg18"
   sodipodi:docname="application-pdf.svg"
   inkscape:version="0.92.4 (f8dce91, 2019-08-02)">
  <metadata
     id="metadata24">
    <rdf:RDF>
      <cc:Work
         rdf:about="">
        <dc:format>image/svg+xml</dc:format>
        <dc:type
           rdf:resource="http://purl.org/dc/dcmitype/StillImage" />
        <dc:title></dc:title>
      </cc:Work>
    </rdf:RDF>
  </metadata>
  <defs
     id="defs22" />
  <sodipodi:namedview
     pagecolor="#ffffff"
     bordercolor="#666666"
     borderopacity="1"
     objecttolerance="10"
     gridtolerance="10"
     guidetolerance="10"
     inkscape:pageopacity="0"
     inkscape:pageshadow="2"
     inkscape:window-width="1920"
     inkscape:window-height="1002"
     id="namedview20"
     showgrid="false"
     inkscape:zoom="3.4766083"
     inkscape:cx="67.896882"
     inkscape:cy="98.635777"
     inkscape:window-x="1920"
     inkscape:window-y="0"
     inkscape:window-maximized="1"
     inkscape:current-layer="svg18" />
  <path
     style="fill:#ffffff;fill-rule:evenodd"
     inkscape:connector-curvature="0"
     id="path2"
     d="M 33,18.995801 C 33,13.475273 37.472912,9 43.001147,9 H 123.82227 L 159,44 V 173.00346 C 159,178.5244 154.51559,183 149.00767,183 H 42.992328 C 37.473717,183 33,178.524 33,173.0042 Z" />
  <path
     style="fill:#dc505e;fill-rule:evenodd;fill-opacity:1"
     inkscape:connector-curvature="0"
     id="path4"
     d="M 33,18.997019 C 33,13.475818 37.472912,9 43.001147,9 H 123.82227 L 159,44 v 0 c 0,2.109524 -4.48441,3.819631 -9.99233,3.819631 H 33 Z" />
  <path
     style="fill:#7a1b1c;fill-rule:evenodd;fill-opacity:1"
     inkscape:connector-curvature="0"
     id="path6"
     d="m 120,13.998036 c 0,-5.5217628 3.16437,-6.8336645 7.06936,-2.928675 l 29.86128,29.861278 C 160.83494,44.834939 159.51847,48 154.00196,48 H 129.99804 C 124.47627,48 120,43.518474 120,38.001964 Z" />
</svg>

<svg width="192" height="192" version="1.1" viewBox="0 0 192 192" xmlns="http://www.w3.org/2000/svg">
 <path d="m33 18.996c0-5.5205 4.4729-9.9958 10.001-9.9958h80.821l35.178 35v129c0 5.5209-4.4844 9.9965-9.9923 9.9965h-106.02c-5.5186 0-9.9923-4.476-9.9923-9.9958z" style="fill-rule:evenodd;fill:#fff"/>
 <path d="m33 18.997c0-5.5212 4.4729-9.997 10.001-9.997h80.821l35.178 35c0 2.1095-4.4844 3.8196-9.9923 3.8196h-116.01z" style="fill-rule:evenodd;fill:#dc505e"/>
 <path d="m120 13.998c0-5.5218 3.1644-6.8337 7.0694-2.9287l29.861 29.861c3.9043 3.9043 2.5878 7.0694-2.9287 7.0694h-24.004c-5.5218 0-9.998-4.4815-9.998-9.998z" style="fill-rule:evenodd;fill:#7a1b1c"/>
</svg>
